X: 1
T:Neville
T:Or, the Ensorcelled Son
M:6/8
L:1/8
Q:200
C:Words and music by Rhonwen y Llysieuyddes (m.k.a. Julia Howarth West)
S:From "A Breeze Through the CONduit"
B:A Breeze Through the CONduit
N:Robert and Leah de Spencer were baron and baroness of Salt Lake City's
N:local barony of the Society for Creative Anachronism, Loch Salann, for
N:many years.  This song was written before the Kingdom of Atenveldt
N:split and Caerthe (Denver, Colorado) became part of the Kingdom of the
N:Outlands.  This story, of course, is apocryphal (or is it. . . ).
W:Oh, Robert de Spencer had a son
W:Sing hey a way a way oh,
W:A lad of four; a lively boy,
W:His father's pride and his mother's joy,
W:But other folks he did annoy.
W:Sing hey a way a way oh.
K:F
c|F2 F F2 A|G2 E F2 C|F2 B A2 G| A c4 c| d2 A A2 d| c2 =B c A|
G2 A G2 F|
E2 F E2 C| F2 B A2 G| A2 F F2 G| A2 F F2 E| G F4||
